img/icon/vk-icon.svg

<svg width="21" height="11" viewBox="0 0 21 11" fill="none" xmlns="http://www.w3.org/2000/svg">
<path fill-rule="evenodd" clip-rule="evenodd" d="M20.1518 0.744694C20.2951 0.315404 20.1518 -0.00012207 19.4694 -0.00012207H17.213C16.6392 -0.00012207 16.3748 0.272417 16.2313 0.572891C16.2313 0.572891 15.0839 3.08465 13.4584 4.71613C12.9325 5.1884 12.6935 5.33864 12.4066 5.33864C12.2631 5.33864 12.0555 5.1884 12.0555 4.75911V0.744694C12.0555 0.229431 11.8891 -0.00012207 11.4109 -0.00012207H7.86512C7.50651 -0.00012207 7.29087 0.238983 7.29087 0.465641C7.29087 0.953983 8.10365 1.06673 8.18746 2.44058V5.42461C8.18746 6.07883 8.05594 6.19751 7.76906 6.19751C7.00414 6.19751 5.14343 3.67446 4.0399 0.787681C3.82361 0.226536 3.60667 -0.00012207 3.03 -0.00012207H0.773618C0.128936 -0.00012207 0 0.272417 0 0.572891C0 1.10958 0.764915 3.77158 3.56171 7.2923C5.42629 9.69652 8.05336 10.9999 10.4438 10.9999C11.8781 10.9999 12.0555 10.7104 12.0555 10.2118V8.39462C12.0555 7.81567 12.1914 7.70017 12.6456 7.70017C12.9802 7.70017 13.5539 7.8504 14.8926 9.0096C16.4226 10.3836 16.6749 10.9999 17.5353 10.9999H19.7917C20.4364 10.9999 20.7588 10.7104 20.5728 10.1391C20.3694 9.56973 19.6388 8.74372 18.6697 7.76458C18.1438 7.20633 17.3548 6.60538 17.1158 6.30476C16.7811 5.91831 16.8768 5.74651 17.1158 5.40305C17.1158 5.40305 19.8649 1.92546 20.1518 0.744694Z" fill="white"/>
</svg>

<svg width="21" height="11" fill="none" xmlns="http://www.w3.org/2000/svg"><path fill-rule="evenodd" clip-rule="evenodd" d="M20.2.7c.1-.4 0-.7-.7-.7h-2.3c-.6 0-.8.3-1 .6 0 0-1.1 2.5-2.7 4.1-.6.5-.8.6-1 .6-.2 0-.4-.1-.4-.5v-4c0-.6-.2-.8-.7-.8H8c-.4 0-.6.2-.6.5 0 .5.8.6.9 2v3c0 .6-.1.7-.4.7C7 6.2 5 3.7 4 .8 3.8.2 3.6 0 3 0H.8C0 0 0 .3 0 .6c0 .5.8 3.2 3.6 6.7a9 9 0 006.8 3.7c1.5 0 1.7-.3 1.7-.8V8.4c0-.6 0-.7.5-.7.4 0 1 .2 2.3 1.3 1.5 1.4 1.8 2 2.6 2h2.3c.6 0 1-.3.8-.9-.2-.5-1-1.4-2-2.3l-1.5-1.5c-.3-.4-.2-.6 0-.9 0 0 2.8-3.5 3-4.7z" fill="#fff"/></svg>
